X:275
T:score74
L:1/16
Q:1/4=96
M:2/4
I:linebreak $
K:G
 G z/(A/G) z/(A/ B) z/(d/e) z/(d/ | g) z/(f/a) z/(g/ f) z/(a/g) z/(e/ | %2
 d) z/(d/e) z/(d/ g) z/(e/d) z/(B/ | A8) |$ G z/(A/G) z/((A/ B)) z/(d/e) z/(d/ | %5
 e) z/(f/a) z/(g/ f) z/(a/g) z/(e/ | d) z/(d/g) z/(G/ A2d2 | G6) z2 |] %8
